icons/4_Outdated/Directus v1.svg

<svg width="1024" height="1024" viewBox="0 0 1024 1024" fill="none" xmlns="http://www.w3.org/2000/svg">
<g clip-path="url(#clip0_3_524)">
<path d="M512 1024C794.77 1024 1024 794.77 1024 512C1024 229.23 794.77 0 512 0C229.23 0 0 229.23 0 512C0 794.77 229.23 1024 512 1024Z" fill="#9ABEFF"/>
<path d="M697.43 555.329C694.91 554.749 692.44 553.949 690.05 552.949C688.1 552.099 686.33 550.889 684.83 549.389C686.25 536.769 684.83 525.829 686.01 513.469C690.77 465.409 720.99 480.639 748.1 472.799C764.98 468.039 781.88 458.289 786.16 438.299C767.908 416.927 747.141 397.839 724.31 381.449C650.81 329.119 554.7 308.179 467.39 322.689C480.74 345.989 500.89 364.669 525.13 376.209C525.13 376.209 501.47 376.209 481.19 361.069C475.24 363.439 463.34 368.129 457.63 370.979C504.01 415.469 576.57 420.459 628.67 380.499C628.43 380.969 623.91 387.869 618.44 416.659C606.31 478.029 571.33 473.279 528.04 457.819C438.12 425.219 388.64 455.439 343.68 393.589C337.259 397.195 331.913 402.445 328.191 408.799C324.469 415.154 322.505 422.385 322.5 429.749C322.5 445.209 331.07 458.289 343.44 465.429C350.19 456.469 353.22 453.919 365 453.919C346.78 464.249 344.63 473.269 336.79 498.249C327.27 528.469 331.31 559.399 286.83 567.479C263.28 568.669 263.75 584.609 255.19 608.409C244.49 639.309 230.22 651.689 202.38 680.949C213.8 694.749 225.7 696.409 237.82 691.419C262.8 680.949 282.07 648.599 300.15 627.659C320.37 604.349 368.9 614.349 405.53 591.499C430.75 576.039 443.12 555.109 426.47 519.659C437.189 531.462 443.566 546.565 444.55 562.479C486.89 556.999 543.51 608.629 595.13 617.189C590 610.727 585.758 603.607 582.52 596.019C576.57 581.739 574.67 568.659 575.86 557.239C580.61 585.549 609.16 621.949 655.07 625.279C666.73 626.229 679.58 624.799 692.9 620.759C708.84 615.999 723.58 609.819 741.18 613.149C754.27 615.529 766.4 622.189 774.02 633.369C785.44 650.009 810.41 653.589 821.59 633.129C796.38 567.239 726.91 562.959 697.42 555.339L697.43 555.329Z" fill="white"/>
</g>
<defs>
<clipPath id="clip0_3_524">
<rect width="1024" height="1024" fill="white"/>
</clipPath>
</defs>
</svg>

<svg width="1024" height="1024" fill="none" xmlns="http://www.w3.org/2000/svg"><g clip-path="url(#a)"><path d="M512 1024c282.77 0 512-229.23 512-512S794.77 0 512 0 0 229.23 0 512s229.23 512 512 512Z" fill="#9ABEFF"/><path d="M697.43 555.329c-2.52-.58-4.99-1.38-7.38-2.38-1.95-.85-3.72-2.06-5.22-3.56 1.42-12.62 0-23.56 1.18-35.92 4.76-48.06 34.98-32.83 62.09-40.67 16.88-4.76 33.78-14.51 38.06-34.5a348.922 348.922 0 0 0-61.85-56.85c-73.5-52.33-169.61-73.27-256.92-58.76 13.35 23.3 33.5 41.98 57.74 53.52 0 0-23.66 0-43.94-15.14-5.95 2.37-17.85 7.06-23.56 9.91 46.38 44.49 118.94 49.48 171.04 9.52-.24.47-4.76 7.37-10.23 36.16-12.13 61.37-47.11 56.62-90.4 41.16-89.92-32.6-139.4-2.38-184.36-64.23a41.505 41.505 0 0 0-21.18 36.16c0 15.46 8.57 28.54 20.94 35.68 6.75-8.96 9.78-11.51 21.56-11.51-18.22 10.33-20.37 19.35-28.21 44.33-9.52 30.22-5.48 61.15-49.96 69.23-23.55 1.19-23.08 17.13-31.64 40.93-10.7 30.9-24.97 43.28-52.81 72.54 11.42 13.8 23.32 15.46 35.44 10.47 24.98-10.47 44.25-42.82 62.33-63.76 20.22-23.31 68.75-13.31 105.38-36.16 25.22-15.46 37.59-36.39 20.94-71.84a70.13 70.13 0 0 1 18.08 42.82c42.34-5.48 98.96 46.15 150.58 54.71a92.338 92.338 0 0 1-12.61-21.17c-5.95-14.28-7.85-27.36-6.66-38.78 4.75 28.31 33.3 64.71 79.21 68.04 11.66.95 24.51-.48 37.83-4.52 15.94-4.76 30.68-10.94 48.28-7.61 13.09 2.38 25.22 9.04 32.84 20.22 11.42 16.64 36.39 20.22 47.57-.24-25.21-65.89-94.68-70.17-124.17-77.79l.01-.01Z" fill="#fff"/></g><defs><clipPath id="a"><path fill="#fff" d="M0 0h1024v1024H0z"/></clipPath></defs></svg>
